**harm	**harte	**kern	**silbe	**kern	**silbe	**rhyme	**timestamp	**phrase	**leadinstrument
*M4/4	*M4/4	*ICvox	*	*ICvox	*	*	*	*	*
*	*	*VRlead	*	*VRharmonize*VRresponse	*	*	*	*	*
*	*	*Hstimme	*	*Nstimme	*	*	*	*	*
*E-:	*E-:	*E-:	*	*E-:	*	*	*	*	*
*	*	*M4/4	*	*M4/4	*	*	*	*	*
*	*	*clefG2	*	*clefG2	*	*	*	*	*
1r;	N	r;	.	r;	.	.	0	.	r
1r;	N	r;	.	r;	.	.	0.093	.	r
=1	=1	=1	=1	=1	=1	=1	=1	=1	=1
*>Letter>A	*>Letter>A	*>Letter>A	*>Letter>A	*>Letter>A	*>Letter>A	*>Letter>A	*>Letter>A	*>Letter>A	*>Letter>A
*>Label>Intro	*>Label>Intro	*>Label>Intro	*>Label>Intro	*>Label>Intro	*>Label>Intro	*>Label>Intro	*>Label>Intro	*>Label>Intro	*>Label>Intro
1IVm7	A-:13	2r	.	1r	.	.	12.509	newline	brass
.	.	4.r	.	.	.	.	.	.	.
.	.	16f	Get	.	.	.	.	.	.
.	.	[16g-	up	.	.	.	.	.	.
=2	=2	=2	=2	=2	=2	=2	=2	=2	=2
*>Letter>B	*>Letter>B	*>Letter>B	*>Letter>B	*>Letter>B	*>Letter>B	*>Letter>B	*>Letter>B	*>Letter>B	*>Letter>B
*>Label>Verse	*>Label>Verse	*>Label>Verse	*>Label>Verse	*>Label>Verse	*>Label>Verse	*>Label>Verse	*>Label>Verse	*>Label>Verse	*>Label>Verse
1Im7	E-:13	16g-]	_	4r	.	.	14.795	newline	voice
.	.	16~e-	ah	.	.	.	.	.	.
.	.	8r	.	.	.	.	.	.	.
.	.	4r	.	16e-	Get	.	.	.	.
.	.	.	.	8e-	on	.	.	.	.
.	.	.	.	16e-	up	.	.	.	.
.	.	4.r	.	2r	.	.	.	.	.
.	.	16e-	Get	.	.	.	.	.	.
.	.	[16e-	up	.	.	.	.	.	.
=3	=3	=3	=3	=3	=3	=3	=3	=3	=3
1Im7	E-:13	16e-]	_	4r	.	.	17.04	.	voice
.	.	16~e-	ah	.	.	.	.	.	.
.	.	8r	.	.	.	.	.	.	.
.	.	4r	.	16e-	Get	.	.	.	.
.	.	.	.	8e-	on	.	.	.	.
.	.	.	.	16e-	up	.	.	.	.
.	.	4r	.	2r	.	.	.	.	.
.	.	16e-	Stay	.	.	.	.	.	.
.	.	8e-	on	.	.	.	.	.	.
.	.	16e-	the	.	.	.	.	.	.
=4	=4	=4	=4	=4	=4	=4	=4	=4	=4
1Im7	E-:13	8g-	scene	4r	.	A	19.285	newline	voice
.	.	16~e-	uh	.	.	.	.	.	.
.	.	16r	.	.	.	.	.	.	.
.	.	4r	.	16e-	Get	.	.	.	.
.	.	.	.	8e-	on	.	.	.	.
.	.	.	.	16e-	up	.	.	.	.
.	.	16r	.	2r	.	.	.	.	.
.	.	16~d-	Uh	.	.	.	.	.	.
.	.	16~e-	like	.	.	.	.	.	.
.	.	16~e-	a	.	.	.	.	.	.
.	.	8f	sex	.	.	.	.	.	.
.	.	16d-	ma-	.	.	.	.	.	.
.	.	[16d-	-chine	.	.	A	.	.	.
=5	=5	=5	=5	=5	=5	=5	=5	=5	=5
1Im7	E-:13	16d-]	_	4r	.	.	21.476	.	voice
.	.	16~d	uh	.	.	.	.	.	.
.	.	8r	.	.	.	.	.	.	.
.	.	4r	.	16e-	Get	.	.	.	.
.	.	.	.	8e-	on	.	.	.	.
.	.	.	.	16e-	up	.	.	.	.
.	.	4r	.	2r	.	.	.	.	.
.	.	8r	.	.	.	.	.	.	.
.	.	16g-	Get	.	.	.	.	.	.
.	.	[16a-	up	.	.	.	.	.	.
=6	=6	=6	=6	=6	=6	=6	=6	=6	=6
1Im7	E-:13	16a-]	_	4r	.	.	23.667	newline	voice
.	.	16~e-	ah	.	.	.	.	.	.
.	.	8r	.	.	.	.	.	.	.
.	.	4r	.	16e-	Get	.	.	.	.
.	.	.	.	8e-	on	.	.	.	.
.	.	.	.	16e-	up	.	.	.	.
.	.	4.r	.	2r	.	.	.	.	.
.	.	16a	Get	.	.	.	.	.	.
.	.	[16b-	up	.	.	.	.	.	.
=7	=7	=7	=7	=7	=7	=7	=7	=7	=7
1Im7	E-:13	16b-]	_	4r	.	.	25.875	.	voice
.	.	16~e-	ah	.	.	.	.	.	.
.	.	8r	.	.	.	.	.	.	.
.	.	4r	.	16e-	Get	.	.	.	.
.	.	.	.	8e-	on	.	.	.	.
.	.	.	.	16e-	up	.	.	.	.
.	.	4r	.	2r	.	.	.	.	.
.	.	16e-	Stay	.	.	.	.	.	.
.	.	8e-	on	.	.	.	.	.	.
.	.	16e-	the	.	.	.	.	.	.
=8	=8	=8	=8	=8	=8	=8	=8	=8	=8
1Im7	E-:13	8g-	scene	4r	.	A	28.083	newline	voice
.	.	16~e-	uh	.	.	.	.	.	.
.	.	16r	.	.	.	.	.	.	.
.	.	4r	.	16e-	Get	.	.	.	.
.	.	.	.	8e-	on	.	.	.	.
.	.	.	.	16e-	up	.	.	.	.
.	.	16r	.	2r	.	.	.	.	.
.	.	16~d-	Uh	.	.	.	.	.	.
.	.	16~e-	like	.	.	.	.	.	.
.	.	16~e-	a	.	.	.	.	.	.
.	.	8f	sex	.	.	.	.	.	.
.	.	16e-	ma-	.	.	.	.	.	.
.	.	[16e-	-chine	.	.	A	.	.	.
=9	=9	=9	=9	=9	=9	=9	=9	=9	=9
1Im7	E-:13	16e-]	_	4r	.	.	30.292	.	voice
.	.	16~B-	uh	.	.	.	.	.	.
.	.	8r	.	.	.	.	.	.	.
.	.	4r	.	16e-	Get	.	.	.	.
.	.	.	.	8e-	on	.	.	.	.
.	.	.	.	16e-	up	.	.	.	.
.	.	4.r	.	2r	.	.	.	.	.
.	.	16cc	Get	.	.	.	.	.	.
.	.	[16dd-	up	.	.	.	.	.	.
=10	=10	=10	=10	=10	=10	=10	=10	=10	=10
1Im7	E-:13	16dd-]	_	4r	.	.	32.501	newline	voice
.	.	16~b-	ah	.	.	.	.	.	.
.	.	8r	.	.	.	.	.	.	.
.	.	4r	.	16e-	Get	.	.	.	.
.	.	.	.	8e-	on	.	.	.	.
.	.	.	.	16e-	up	.	.	.	.
.	.	4r	.	2r	.	.	.	.	.
.	.	16e-	Stay	.	.	.	.	.	.
.	.	8e-	on	.	.	.	.	.	.
.	.	16e-	the	.	.	.	.	.	.
=11	=11	=11	=11	=11	=11	=11	=11	=11	=11
1Im7	E-:13	8g-	scene	4r	.	A	34.72	.	voice
.	.	16~e-	uh	.	.	.	.	.	.
.	.	16r	.	.	.	.	.	.	.
.	.	4r	.	16e-	Get	.	.	.	.
.	.	.	.	8e-	on	.	.	.	.
.	.	.	.	16e-	up	.	.	.	.
.	.	16r	.	2r	.	.	.	.	.
.	.	16~d-	Uh	.	.	.	.	.	.
.	.	16~e-	like	.	.	.	.	.	.
.	.	16~e-	a	.	.	.	.	.	.
.	.	8f	sex	.	.	.	.	.	.
.	.	16e-	ma-	.	.	.	.	.	.
.	.	[16e-	-chine	.	.	A	.	.	.
=12	=12	=12	=12	=12	=12	=12	=12	=12	=12
1Im7	E-:13	16e-]	_	4r	.	.	36.939	newline	voice
.	.	16~B-	uh	.	.	.	.	.	.
.	.	8r	.	.	.	.	.	.	.
.	.	4r	.	16e-	Get	.	.	.	.
.	.	.	.	8e-	on	.	.	.	.
.	.	.	.	16e-	up	.	.	.	.
.	.	16r	.	2r	.	.	.	.	.
.	.	16~d-	Uh	.	.	.	.	.	.
.	.	16~e-	wait	.	.	.	.	.	.
.	.	16~e-	a	.	.	.	.	.	.
.	.	16~e-	mi-	.	.	.	.	.	.
.	.	8.~B-	-nute	.	.	.	.	.	.
=13	=13	=13	=13	=13	=13	=13	=13	=13	=13
1Im7	E-:13	8r	.	1r	.	.	39.163	.	voice
.	.	16e-	Shake	.	.	.	.	.	.
.	.	[16d-	your	.	.	.	.	.	.
.	.	16d-]	_	.	.	.	.	.	.
.	.	16e-	arm	.	.	B	.	.	.
.	.	8B-	_	.	.	.	.	.	.
.	.	4r	.	.	.	.	.	.	.
.	.	8r	.	.	.	.	.	.	.
.	.	16d-	then	.	.	.	.	.	.
.	.	[16e-	use	.	.	.	.	.	.
=14	=14	=14	=14	=14	=14	=14	=14	=14	=14
1Im7	E-:13	16e-]	_	1r	.	.	41.387	newline	voice
.	.	8B-	your	.	.	.	.	.	.
.	.	16e-	form	.	.	B	.	.	.
.	.	8f	_	.	.	.	.	.	.
.	.	8r	.	.	.	.	.	.	.
.	.	2r	.	.	.	.	.	.	.
=15	=15	=15	=15	=15	=15	=15	=15	=15	=15
1Im7	E-:13	16a	Stay	1r	.	.	43.588	.	voice
.	.	8a-	on	.	.	.	.	.	.
.	.	16g	the	.	.	.	.	.	.
.	.	8a-	scene	.	.	A	.	.	.
.	.	8~e-	uh	.	.	.	.	.	.
.	.	4r	.	.	.	.	.	.	.
.	.	16r	.	.	.	.	.	.	.
.	.	16~d-	Uh	.	.	.	.	.	.
.	.	16~e-	like	.	.	.	.	.	.
.	.	16~e-	a	.	.	.	.	.	.
=16	=16	=16	=16	=16	=16	=16	=16	=16	=16
1Im7	E-:13	8e-	sex	1r	.	.	45.79	newline	voice
.	.	16d-	ma-	.	.	.	.	.	.
.	.	[16e-	-chine	.	.	A	.	.	.
.	.	16e-]	_	.	.	.	.	.	.
.	.	16~B-	uh	.	.	.	.	.	.
.	.	8r	.	.	.	.	.	.	.
.	.	4r	.	.	.	.	.	.	.
.	.	8.r	.	.	.	.	.	.	.
.	.	16~d-	Ya	.	.	.	.	.	.
=17	=17	=17	=17	=17	=17	=17	=17	=17	=17
1Im7	E-:13	16d-	got-	1r	.	.	47.995	.	voice
.	.	16d-	-ta	.	.	.	.	.	.
.	.	16e-	have	.	.	.	.	.	.
.	.	16e-	the	.	.	.	.	.	.
.	.	8f	fee-	.	.	.	.	.	.
.	.	8d-	-lin'	.	.	.	.	.	.
.	.	2r	.	.	.	.	.	.	.
=18	=18	=18	=18	=18	=18	=18	=18	=18	=18
1Im7	E-:13	16d-	Sure	1r	.	.	50.2	newline	voice
.	.	16d-	as	.	.	.	.	.	.
.	.	16d-	you're	.	.	.	.	.	.
.	.	16f	born	.	.	C	.	.	.
.	.	8g	_	.	.	.	.	.	.
.	.	8r	.	.	.	.	.	.	.
.	.	4r	.	.	.	.	.	.	.
.	.	8.r	.	.	.	.	.	.	.
.	.	16e-	and	.	.	.	.	.	.
=19	=19	=19	=19	=19	=19	=19	=19	=19	=19
1Im7	E-:13	16e-	get	1r	.	.	52.423	.	voice
.	.	16e-	it	.	.	.	.	.	.
.	.	16~e-	to-	.	.	.	.	.	.
.	.	[16e-	-ge-	.	.	.	.	.	.
.	.	16e-]	_	.	.	.	.	.	.
.	.	16d-	-ther	.	.	.	.	.	.
.	.	8r	.	.	.	.	.	.	.
.	.	4r	.	.	.	.	.	.	.
.	.	8r	.	.	.	.	.	.	.
.	.	16e-	Right	.	.	.	.	.	.
.	.	[16e-	on	.	.	C	.	.	.
=20	=20	=20	=20	=20	=20	=20	=20	=20	=20
1Im7	E-:13	16e-]	_	1r	.	.	54.646	newline	voice
.	.	8e-	Right	.	.	.	.	.	.
.	.	[16d-	on	.	.	.	.	.	.
.	.	16d-]	_	.	.	.	.	.	.
.	.	16r	.	.	.	.	.	.	.
.	.	8r	.	.	.	.	.	.	.
.	.	4.r	.	.	.	.	.	.	.
.	.	16f	Get	.	.	.	.	.	.
.	.	[16g-	up	.	.	.	.	.	.
=21	=21	=21	=21	=21	=21	=21	=21	=21	=21
1Im7	E-:13	16g-]	_	4r	.	.	56.847	.	voice
.	.	16~e-	ah	.	.	.	.	.	.
.	.	8r	.	.	.	.	.	.	.
.	.	4r	.	16e-	Get	.	.	.	.
.	.	.	.	8e-	on	.	.	.	.
.	.	.	.	16e-	up	.	.	.	.
.	.	4r	.	2r	.	.	.	.	.
.	.	8r	.	.	.	.	.	.	.
.	.	16f#	Get	.	.	.	.	.	.
.	.	[16g	up	.	.	.	.	.	.
=22	=22	=22	=22	=22	=22	=22	=22	=22	=22
1Im7	E-:13	16g]	_	4r	.	.	59.049	newline	voice
.	.	16~e-	ah	.	.	.	.	.	.
.	.	8r	.	.	.	.	.	.	.
.	.	4r	.	16e-	Get	.	.	.	.
.	.	.	.	8e-	on	.	.	.	.
.	.	.	.	16e-	up	.	.	.	.
.	.	4.r	.	2r	.	.	.	.	.
.	.	16g	Get	.	.	.	.	.	.
.	.	[16a-	up	.	.	.	.	.	.
=23	=23	=23	=23	=23	=23	=23	=23	=23	=23
1Im7	E-:13	16a-]	_	4r	.	.	61.261	.	voice
.	.	16~e-	ah	.	.	.	.	.	.
.	.	8r	.	.	.	.	.	.	.
.	.	4r	.	16e-	Get	.	.	.	.
.	.	.	.	8e-	on	.	.	.	.
.	.	.	.	16e-	up	.	.	.	.
.	.	2r	.	2r	.	.	.	.	.
=24	=24	=24	=24	=24	=24	=24	=24	=24	=24
1Im7	E-:13	1r	.	1r	.	.	63.474	newline	piano
=25	=25	=25	=25	=25	=25	=25	=25	=25	=25
1Im7	E-:13	1r	.	1r	.	.	65.735	.	piano
=26	=26	=26	=26	=26	=26	=26	=26	=26	=26
1Im7	E-:13	2r	.	1r	.	.	67.996	newline	piano
.	.	4.r	.	.	.	.	.	.	.
.	.	8~b-	Huh!	.	.	.	.	.	.
=27	=27	=27	=27	=27	=27	=27	=27	=27	=27
1Im7	E-:13	1r	.	1r	.	.	70.238	.	piano
=28	=28	=28	=28	=28	=28	=28	=28	=28	=28
1Im7	E-:13	1r	.	1r	.	.	72.481	newline	piano
=29	=29	=29	=29	=29	=29	=29	=29	=29	=29
1Im7	E-:13	1r	.	1r	.	.	74.693	.	piano
=30	=30	=30	=30	=30	=30	=30	=30	=30	=30
1Im7	E-:13	1r	.	1r	.	.	76.905	newline	piano
=31	=31	=31	=31	=31	=31	=31	=31	=31	=31
1Im7	E-:13	2r	.	1r	.	.	79.167	.	piano
.	.	4.r	.	.	.	.	.	.	.
.	.	16e-	Get	.	.	.	.	.	.
.	.	[16e-	up	.	.	.	.	.	.
=32	=32	=32	=32	=32	=32	=32	=32	=32	=32
1Im7	E-:13	16e-]	_	4r	.	.	81.429	newline	voice
.	.	16~d-	ah	.	.	.	.	.	.
.	.	8r	.	.	.	.	.	.	.
.	.	4r	.	16e-	Get	.	.	.	.
.	.	.	.	8e-	on	.	.	.	.
.	.	.	.	16e-	up	.	.	.	.
.	.	4r	.	2r	.	.	.	.	.
.	.	8r	.	.	.	.	.	.	.
.	.	16g	Get	.	.	.	.	.	.
.	.	[16a-	up	.	.	.	.	.	.
=33	=33	=33	=33	=33	=33	=33	=33	=33	=33
1Im7	E-:13	16a-]	_	4r	.	.	83.667	.	voice
.	.	16~e-	ah	.	.	.	.	.	.
.	.	8r	.	.	.	.	.	.	.
.	.	4r	.	16e-	Get	.	.	.	.
.	.	.	.	8e-	on	.	.	.	.
.	.	.	.	16e-	up	.	.	.	.
.	.	4r	.	2r	.	.	.	.	.
.	.	8r	.	.	.	.	.	.	.
.	.	16dd-	Get	.	.	.	.	.	.
.	.	[16ee-	up	.	.	.	.	.	.
=34	=34	=34	=34	=34	=34	=34	=34	=34	=34
1Im7	E-:13	16ee-]	_	4r	.	.	85.906	newline	voice
.	.	16r	.	.	.	.	.	.	.
.	.	8~e-	ah	.	.	.	.	.	.
.	.	4r	.	16e-	Get	.	.	.	.
.	.	.	.	8e-	on	.	.	.	.
.	.	.	.	16e-	up	.	.	.	.
.	.	4.r	.	2r	.	.	.	.	.
.	.	16e-	Get	.	.	.	.	.	.
.	.	[16e-	up	.	.	.	.	.	.
=35	=35	=35	=35	=35	=35	=35	=35	=35	=35
1Im7	E-:13	16e-]	_	4r	.	.	88.133	.	voice
.	.	16~e-	ah	.	.	.	.	.	.
.	.	8r	.	.	.	.	.	.	.
.	.	4r	.	16e-	Get	.	.	.	.
.	.	.	.	8e-	on	.	.	.	.
.	.	.	.	16e-	up	.	.	.	.
.	.	4.r	.	2r	.	.	.	.	.
.	.	16~e-	You	.	.	.	.	.	.
.	.	[16~f	said	.	.	.	.	.	.
=36	=36	=36	=36	=36	=36	=36	=36	=36	=36
1Im7	E-:13	16~f]	_	1r	.	.	90.36	newline	voice
.	.	16~e-	uh	.	.	.	.	.	.
.	.	8r	.	.	.	.	.	.	.
.	.	4r	.	.	.	.	.	.	.
.	.	8.r	.	.	.	.	.	.	.
.	.	16d-	I	.	.	.	.	.	.
.	.	16e-	said	.	.	.	.	.	.
.	.	16d-	you	.	.	.	.	.	.
.	.	16e-	got-	.	.	.	.	.	.
.	.	16~d-	-ta	.	.	.	.	.	.
=37	=37	=37	=37	=37	=37	=37	=37	=37	=37
1Im7	E-:13	2r	.	1r	.	.	92.595	.	voice
.	.	4r	.	.	.	.	.	.	.
.	.	16r	.	.	.	.	.	.	.
.	.	16~d-	Uh	.	.	.	.	.	.
.	.	16e-	said	.	.	.	.	.	.
.	.	16d-	the	.	.	.	.	.	.
=38	=38	=38	=38	=38	=38	=38	=38	=38	=38
1Im7	E-:13	8f	fee-	1r	.	.	94.83	newline	voice
.	.	16d-	-lin'	.	.	.	.	.	.
.	.	16r	.	.	.	.	.	.	.
.	.	4r	.	.	.	.	.	.	.
.	.	8.r	.	.	.	.	.	.	.
.	.	16~d-	You	.	.	.	.	.	.
.	.	8d-	got-	.	.	.	.	.	.
.	.	16~d-	-ta	.	.	.	.	.	.
.	.	[16g	get	.	.	D	.	.	.
=39	=39	=39	=39	=39	=39	=39	=39	=39	=39
1Im7	E-:13	16g]	_	1r	.	.	97.047	.	voice
.	.	16~d-	ah	.	.	.	.	.	.
.	.	8r	.	.	.	.	.	.	.
.	.	4r	.	.	.	.	.	.	.
.	.	4r	.	.	.	.	.	.	.
.	.	16r	.	.	.	.	.	.	.
.	.	16~g-	Ya	.	.	.	.	.	.
.	.	16a-	give	.	.	.	.	.	.
.	.	16g-	me	.	.	.	.	.	.
=40	=40	=40	=40	=40	=40	=40	=40	=40	=40
1Im7	E-:13	8a-	fe-	1r	.	.	99.264	newline	voice
.	.	16e-	-ver	.	.	.	.	.	.
.	.	16r	.	.	.	.	.	.	.
.	.	4r	.	.	.	.	.	.	.
.	.	4.r	.	.	.	.	.	.	.
.	.	16e-	and	.	.	.	.	.	.
.	.	16d-	a	.	.	.	.	.	.
=41	=41	=41	=41	=41	=41	=41	=41	=41	=41
1Im7	E-:13	16g-	cold	1r	.	.	101.483	.	voice
.	.	8e-	_	.	.	.	.	.	.
.	.	[16d-	sweat	.	.	D	.	.	.
.	.	16d-]	_	.	.	.	.	.	.
.	.	16r	.	.	.	.	.	.	.
.	.	8r	.	.	.	.	.	.	.
.	.	4r	.	.	.	.	.	.	.
.	.	8.r	.	.	.	.	.	.	.
.	.	16d-	The	.	.	.	.	.	.
=42	=42	=42	=42	=42	=42	=42	=42	=42	=42
1Im7	E-:13	16e-	way	1r	.	.	103.702	newline	voice
.	.	8e-	I	.	.	.	.	.	.
.	.	[16e-	like	.	.	.	.	.	.
.	.	16e-]	_	.	.	.	.	.	.
.	.	16d-	it	.	.	.	.	.	.
.	.	8r	.	.	.	.	.	.	.
.	.	4.r	.	.	.	.	.	.	.
.	.	16d-	There's	.	.	.	.	.	.
.	.	16d-	the	.	.	.	.	.	.
=43	=43	=43	=43	=43	=43	=43	=43	=43	=43
1Im7	E-:13	16e-	way	1r	.	.	105.899	.	voice
.	.	16e-	it	.	.	.	.	.	.
.	.	16r	.	.	.	.	.	.	.
.	.	[16g	is	.	.	E	.	.	.
.	.	16g]	_	.	.	.	.	.	.
.	.	16g	_	.	.	.	.	.	.
.	.	8r	.	.	.	.	.	.	.
.	.	4r	.	.	.	.	.	.	.
.	.	8.r	.	.	.	.	.	.	.
.	.	[16a	I've	.	.	.	.	.	.
=44	=44	=44	=44	=44	=44	=44	=44	=44	=44
1Im7	E-:13	16a]	_	1r	.	.	108.096	newline	voice
.	.	8a-	got	.	.	.	.	.	.
.	.	16g-	mine	.	.	.	.	.	.
.	.	16e-	_	.	.	.	.	.	.
.	.	16~e-	uh	.	.	.	.	.	.
.	.	8r	.	.	.	.	.	.	.
.	.	4.r	.	.	.	.	.	.	.
.	.	16e-	don't	.	.	.	.	.	.
.	.	[16e-	wor-	.	.	.	.	.	.
=45	=45	=45	=45	=45	=45	=45	=45	=45	=45
1Im7	E-:13	16e-]	_	1r	.	.	110.323	.	voice
.	.	16e-	-ry	.	.	.	.	.	.
.	.	16e-	'bout	.	.	.	.	.	.
.	.	[16e-	his	.	.	E	.	.	.
.	.	16e-]	_	.	.	.	.	.	.
.	.	16~d-	uh	.	.	.	.	.	.
.	.	8r	.	.	.	.	.	.	.
.	.	4.r	.	.	.	.	.	.	.
.	.	16e-	Get	.	.	.	.	.	.
.	.	[16e-	up	.	.	.	.	.	.
=46	=46	=46	=46	=46	=46	=46	=46	=46	=46
1Im7	E-:13	16e-]	_	4r	.	.	112.551	newline	voice
.	.	16~d-	ah	.	.	.	.	.	.
.	.	8r	.	.	.	.	.	.	.
.	.	4r	.	16d-	Get	.	.	.	.
.	.	.	.	8d-	on	.	.	.	.
.	.	.	.	16d-	up	.	.	.	.
.	.	4r	.	2r	.	.	.	.	.
.	.	16e-	Stay	.	.	.	.	.	.
.	.	8e-	on	.	.	.	.	.	.
.	.	16e-	the	.	.	.	.	.	.
=47	=47	=47	=47	=47	=47	=47	=47	=47	=47
1Im7	E-:13	8g-	scene	4r	.	A	114.74	.	voice
.	.	16~d-	uh	.	.	.	.	.	.
.	.	16r	.	.	.	.	.	.	.
.	.	4r	.	16d-	Get	.	.	.	.
.	.	.	.	8d-	on	.	.	.	.
.	.	.	.	16d-	up	.	.	.	.
.	.	8r	.	2r	.	.	.	.	.
.	.	16~e-	like	.	.	.	.	.	.
.	.	16~e-	a	.	.	.	.	.	.
.	.	8f	sex	.	.	.	.	.	.
.	.	16d-	ma-	.	.	.	.	.	.
.	.	[16e-	-chine	.	.	A	.	.	.
=48	=48	=48	=48	=48	=48	=48	=48	=48	=48
1Im7	E-:13	16e-]	_	4r	.	.	116.93	newline	voice
.	.	16~B-	uh	.	.	.	.	.	.
.	.	8r	.	.	.	.	.	.	.
.	.	4r	.	16d-	Get	.	.	.	.
.	.	.	.	8d-	on	.	.	.	.
.	.	.	.	16d-	up	.	.	.	.
.	.	4.r	.	2r	.	.	.	.	.
.	.	16f	Get	.	.	.	.	.	.
.	.	[16g-	up	.	.	.	.	.	.
=49	=49	=49	=49	=49	=49	=49	=49	=49	=49
1Im7	E-:13	16g-]	_	4r	.	.	119.166	.	voice
.	.	16~e-	ah	.	.	.	.	.	.
.	.	8r	.	.	.	.	.	.	.
.	.	4r	.	16d-	Get	.	.	.	.
.	.	.	.	8d-	on	.	.	.	.
.	.	.	.	16d-	up	.	.	.	.
.	.	4.r	.	2r	.	.	.	.	.
.	.	16e-	Get	.	.	.	.	.	.
.	.	[16e-	up	.	.	.	.	.	.
=50	=50	=50	=50	=50	=50	=50	=50	=50	=50
1Im7	E-:13	16e-]	_	4r	.	.	121.402	newline	voice
.	.	16~d-	ah	.	.	.	.	.	.
.	.	8r	.	.	.	.	.	.	.
.	.	4r	.	16d-	Get	.	.	.	.
.	.	.	.	8d-	on	.	.	.	.
.	.	.	.	16d-	up	.	.	.	.
.	.	2r	.	2r	.	.	.	.	.
=51	=51	=51	=51	=51	=51	=51	=51	=51	=51
1Im7	E-:13	1r	.	1r	.	.	123.594	.	voice
=52	=52	=52	=52	=52	=52	=52	=52	=52	=52
1Im7	E-:13	1r	.	1r	.	.	125.786	newline	voice
=53	=53	=53	=53	=53	=53	=53	=53	=53	=53
1Im7	E-:13	1r	.	1r	.	.	128.022	.	voice
=54	=54	=54	=54	=54	=54	=54	=54	=54	=54
1Im7	E-:13	2r	.	1r	.	.	130.258	newline	voice
.	.	8r	.	.	.	.	.	.	.
.	.	16~cc	Hit	.	.	.	.	.	.
.	.	16~b-	me	.	.	.	.	.	.
.	.	4~g	now!	.	.	.	.	.	.
=55	=55	=55	=55	=55	=55	=55	=55	=55	=55
*>Letter>C	*>Letter>C	*>Letter>C	*>Letter>C	*>Letter>C	*>Letter>C	*>Letter>C	*>Letter>C	*>Letter>C	*>Letter>C
*>Label>Bridge	*>Label>Bridge	*>Label>Bridge	*>Label>Bridge	*>Label>Bridge	*>Label>Bridge	*>Label>Bridge	*>Label>Bridge	*>Label>Bridge	*>Label>Bridge
1IVm7	A-:13	2r	.	1r	.	.	132.49	newline	voice
.	.	4.r	.	.	.	.	.	.	.
.	.	16~B-	Come	.	.	.	.	.	.
.	.	[16~B-	on	.	.	.	.	.	.
=56	=56	=56	=56	=56	=56	=56	=56	=56	=56
1IVm7	A-:13	16~B-]	_	1r	.	.	134.699	.	voice
.	.	16~B-	now	.	.	.	.	.	.
.	.	8r	.	.	.	.	.	.	.
.	.	4r	.	.	.	.	.	.	.
.	.	4r	.	.	.	.	.	.	.
.	.	16e-	Stay	.	.	.	.	.	.
.	.	8e-	on	.	.	.	.	.	.
.	.	16e-	the	.	.	.	.	.	.
=57	=57	=57	=57	=57	=57	=57	=57	=57	=57
1IVm7	A-:13	8g-	scene	1r	.	A	136.908	newline	voice
.	.	16~d-	uh	.	.	.	.	.	.
.	.	16r	.	.	.	.	.	.	.
.	.	4r	.	.	.	.	.	.	.
.	.	16r	.	.	.	.	.	.	.
.	.	16~d-	Uh	.	.	.	.	.	.
.	.	16~e-	like	.	.	.	.	.	.
.	.	16~e-	a	.	.	.	.	.	.
.	.	8~f	sex	.	.	.	.	.	.
.	.	16e-	ma-	.	.	.	.	.	.
.	.	[16e-	-chine	.	.	A	.	.	.
=58	=58	=58	=58	=58	=58	=58	=58	=58	=58
1IVm7	A-:13	16e-]	_	1r	.	.	139.093	.	voice
.	.	16~d-	uh	.	.	.	.	.	.
.	.	8r	.	.	.	.	.	.	.
.	.	4r	.	.	.	.	.	.	.
.	.	8.r	.	.	.	.	.	.	.
.	.	16~g-	The	.	.	.	.	.	.
.	.	16g-	way	.	.	.	.	.	.
.	.	8g-	I	.	.	.	.	.	.
.	.	[16a-	like	.	.	.	.	.	.
=59	=59	=59	=59	=59	=59	=59	=59	=59	=59
1IVm7	A-:13	16a-]	_	1r	.	.	141.279	newline	voice
.	.	16b-	it	.	.	.	.	.	.
.	.	8r	.	.	.	.	.	.	.
.	.	4r	.	.	.	.	.	.	.
.	.	8r	.	.	.	.	.	.	.
.	.	16~d-	is	.	.	.	.	.	.
.	.	16~d-	the	.	.	.	.	.	.
.	.	16e-	way	.	.	.	.	.	.
.	.	16e-	it	.	.	.	.	.	.
.	.	16r	.	.	.	.	.	.	.
.	.	[16g-	is	.	.	E	.	.	.
=60	=60	=60	=60	=60	=60	=60	=60	=60	=60
1IVm7	A-:13	8g-]	_	1r	.	.	143.499	.	voice
.	.	8r	.	.	.	.	.	.	.
.	.	4r	.	.	.	.	.	.	.
.	.	8r	.	.	.	.	.	.	.
.	.	16r	.	.	.	.	.	.	.
.	.	[16e-	I	.	.	.	.	.	.
.	.	16e-]	_	.	.	.	.	.	.
.	.	8e-	got	.	.	.	.	.	.
.	.	[16~d-	my	.	.	.	.	.	.
=61	=61	=61	=61	=61	=61	=61	=61	=61	=61
1IVm7	A-:13	16~d-]	_	1r	.	.	145.719	newline	voice
.	.	16r	.	.	.	.	.	.	.
.	.	16~g-	Dig	.	.	.	.	.	.
.	.	16~d-	it!	.	.	.	.	.	.
.	.	4r	.	.	.	.	.	.	.
.	.	8.r	.	.	.	.	.	.	.
.	.	[16e-	He	.	.	.	.	.	.
.	.	16e-]	_	.	.	.	.	.	.
.	.	8e-	got	.	.	.	.	.	.
.	.	[16~d-	his	.	.	E	.	.	.
=62	=62	=62	=62	=62	=62	=62	=62	=62	=62
1IVm7	A-:13	8~d-]	_	1r	.	.	147.91	.	voice
.	.	8r	.	.	.	.	.	.	.
.	.	4r	.	.	.	.	.	.	.
.	.	4r	.	.	.	.	.	.	.
.	.	16e-	Stay	.	.	.	.	.	.
.	.	8e-	on	.	.	.	.	.	.
.	.	16e-	the	.	.	.	.	.	.
=63	=63	=63	=63	=63	=63	=63	=63	=63	=63
1IVm7	A-:13	8e-	scene	1r	.	A	150.101	newline	voice
.	.	16~d-	uh	.	.	.	.	.	.
.	.	16r	.	.	.	.	.	.	.
.	.	4r	.	.	.	.	.	.	.
.	.	16r	.	.	.	.	.	.	.
.	.	16~d-	uh	.	.	.	.	.	.
.	.	16~e-	like	.	.	.	.	.	.
.	.	16~d-	a	.	.	.	.	.	.
.	.	16f	lov-	.	.	.	.	.	.
.	.	16e-	-in'	.	.	.	.	.	.
.	.	16d-	ma-	.	.	.	.	.	.
.	.	[16e-	-chine	.	.	A	.	.	.
=64	=64	=64	=64	=64	=64	=64	=64	=64	=64
1IVm7	A-:13	16e-]	_	1r	.	.	152.298	.	voice
.	.	16~B-	uh	.	.	.	.	.	.
.	.	8r	.	.	.	.	.	.	.
.	.	4r	.	.	.	.	.	.	.
.	.	4r	.	.	.	.	.	.	.
.	.	16g-	Stay	.	.	.	.	.	.
.	.	8a-	on	.	.	.	.	.	.
.	.	16a	the	.	.	.	.	.	.
=65	=65	=65	=65	=65	=65	=65	=65	=65	=65
1IVm7	A-:13	8b-	scene	1r	.	A	154.495	newline	voice
.	.	16~g-	uh	.	.	.	.	.	.
.	.	16r	.	.	.	.	.	.	.
.	.	4r	.	.	.	.	.	.	.
.	.	16r	.	.	.	.	.	.	.
.	.	16~d-	uh	.	.	.	.	.	.
.	.	16~e-	like	.	.	.	.	.	.
.	.	16~d-	a	.	.	.	.	.	.
.	.	16f	lov-	.	.	.	.	.	.
.	.	16e-	-in'	.	.	.	.	.	.
.	.	16d-	ma-	.	.	.	.	.	.
.	.	[16e-	-chine	.	.	A	.	.	.
=66	=66	=66	=66	=66	=66	=66	=66	=66	=66
1IVm7	A-:13	8e-]	_	1r	.	.	156.672	.	voice
.	.	8r	.	.	.	.	.	.	.
.	.	4r	.	.	.	.	.	.	.
.	.	4r	.	.	.	.	.	.	.
.	.	16b-	Stay	.	.	.	.	.	.
.	.	8a-	on	.	.	.	.	.	.
.	.	16g-	the	.	.	.	.	.	.
=67	=67	=67	=67	=67	=67	=67	=67	=67	=67
1IVm7	A-:13	8a-	scene	1r	.	A	158.85	newline	voice
.	.	16~e-	uh	.	.	.	.	.	.
.	.	16r	.	.	.	.	.	.	.
.	.	4r	.	.	.	.	.	.	.
.	.	2r	.	.	.	.	.	.	.
=68	=68	=68	=68	=68	=68	=68	=68	=68	=68
1IVm7	A-:13	1r	.	1r	.	.	161.033	.	voice
=69	=69	=69	=69	=69	=69	=69	=69	=69	=69
1IVm7	A-:13	1r	.	1r	.	.	163.215	newline	voice
=70	=70	=70	=70	=70	=70	=70	=70	=70	=70
1IVm7	A-:13	2r	.	1r	.	.	165.405	.	voice
.	.	8r	.	.	.	.	.	.	.
.	.	16~b-	Hit	.	.	.	.	.	.
.	.	16~b-	it	.	.	.	.	.	.
.	.	8~a-	now!	.	.	.	.	.	.
.	.	8r	.	.	.	.	.	.	.
=71	=71	=71	=71	=71	=71	=71	=71	=71	=71
*>Letter>D	*>Letter>D	*>Letter>D	*>Letter>D	*>Letter>D	*>Letter>D	*>Letter>D	*>Letter>D	*>Letter>D	*>Letter>D
*>Label>Trans	*>Label>Trans	*>Label>Trans	*>Label>Trans	*>Label>Trans	*>Label>Trans	*>Label>Trans	*>Label>Trans	*>Label>Trans	*>Label>Trans
1IVm7	A-:13	1r	.	1r	.	.	167.595	newline	brass
=72	=72	=72	=72	=72	=72	=72	=72	=72	=72
*>Letter>B2	*>Letter>B2	*>Letter>B2	*>Letter>B2	*>Letter>B2	*>Letter>B2	*>Letter>B2	*>Letter>B2	*>Letter>B2	*>Letter>B2
*>Label>Verse	*>Label>Verse	*>Label>Verse	*>Label>Verse	*>Label>Verse	*>Label>Verse	*>Label>Verse	*>Label>Verse	*>Label>Verse	*>Label>Verse
1Im7	E-:13	16g-	Get	2r	.	.	169.945	newline	voice
.	.	8g-	on	.	.	.	.	.	.
.	.	16g-	up	.	.	.	.	.	.
.	.	4r	.	.	.	.	.	.	.
.	.	4.r	.	16e-	Get	.	.	.	.
.	.	.	.	8e-	on	.	.	.	.
.	.	.	.	16e-	up	.	.	.	.
.	.	.	.	4r	.	.	.	.	.
.	.	16e-	Get	.	.	.	.	.	.
.	.	[16e-	up	.	.	.	.	.	.
=73	=73	=73	=73	=73	=73	=73	=73	=73	=73
1Im7	E-:13	16e-]	_	4r	.	.	172.184	.	voice
.	.	16~d-	ah	.	.	.	.	.	.
.	.	8r	.	.	.	.	.	.	.
.	.	4r	.	16e-	Get	.	.	.	.
.	.	.	.	8e-	on	.	.	.	.
.	.	.	.	16e-	up	.	.	.	.
.	.	4.r	.	2r	.	.	.	.	.
.	.	16g-	Get	.	.	.	.	.	.
.	.	[16a-	up	.	.	.	.	.	.
=74	=74	=74	=74	=74	=74	=74	=74	=74	=74
1Im7	E-:13	16a-]	_	4r	.	.	174.423	newline	voice
.	.	16~e-	ah	.	.	.	.	.	.
.	.	8r	.	.	.	.	.	.	.
.	.	4r	.	16e-	Get	.	.	.	.
.	.	.	.	8e-	on	.	.	.	.
.	.	.	.	16e-	up	.	.	.	.
.	.	4r	.	2r	.	.	.	.	.
.	.	16e-	Get	.	.	.	.	.	.
.	.	8e-	on	.	.	.	.	.	.
.	.	16e-	up	.	.	.	.	.	.
=75	=75	=75	=75	=75	=75	=75	=75	=75	=75
1Im7	E-:13	2r	.	4r	.	.	176.632	.	voice
.	.	.	.	16e-	Get	.	.	.	.
.	.	.	.	8e-	on	.	.	.	.
.	.	.	.	16e-	up	.	.	.	.
.	.	4r	.	2r	.	.	.	.	.
.	.	16e-	Stay	.	.	.	.	.	.
.	.	8e-	on	.	.	.	.	.	.
.	.	16e-	the	.	.	.	.	.	.
=76	=76	=76	=76	=76	=76	=76	=76	=76	=76
1Im7	E-:13	8e-	scene	4r	.	A	178.841	newline	voice
.	.	16~B-	uh	.	.	.	.	.	.
.	.	16r	.	.	.	.	.	.	.
.	.	4r	.	16e-	Get	.	.	.	.
.	.	.	.	8e-	on	.	.	.	.
.	.	.	.	16e-	up	.	.	.	.
.	.	16r	.	2r	.	.	.	.	.
.	.	16~d-	uh	.	.	.	.	.	.
.	.	16~e-	like	.	.	.	.	.	.
.	.	16~d-	a	.	.	.	.	.	.
.	.	16f	lov-	.	.	.	.	.	.
.	.	16e-	-in'	.	.	.	.	.	.
.	.	16d-	ma-	.	.	.	.	.	.
.	.	[16e-	-chine	.	.	A	.	.	.
=77	=77	=77	=77	=77	=77	=77	=77	=77	=77
1Im7	E-:13	16e-]	_	4r	.	.	181.034	.	voice
.	.	16~B-	uh	.	.	.	.	.	.
.	.	8r	.	.	.	.	.	.	.
.	.	4r	.	16e-	Get	.	.	.	.
.	.	.	.	8e-	on	.	.	.	.
.	.	.	.	16e-	up	.	.	.	.
.	.	4.r	.	2r	.	.	.	.	.
.	.	16b-	Get	.	.	.	.	.	.
.	.	[16a	up	.	.	.	.	.	.
=78	=78	=78	=78	=78	=78	=78	=78	=78	=78
1Im7	E-:13	16a]	_	4r	.	.	183.227	newline	voice
.	.	16~e-	ah	.	.	.	.	.	.
.	.	8r	.	.	.	.	.	.	.
.	.	4r	.	16e-	Get	.	.	.	.
.	.	.	.	8e-	on	.	.	.	.
.	.	.	.	16e-	up	.	.	.	.
.	.	4r	.	2r	.	.	.	.	.
.	.	8r	.	.	.	.	.	.	.
.	.	[8~g-	Taste	.	.	.	.	.	.
=79	=79	=79	=79	=79	=79	=79	=79	=79	=79
1Im7	E-:13	16~g-]	_	4r	.	.	185.474	.	voice
.	.	16~B-	ah	.	.	.	.	.	.
.	.	8r	.	.	.	.	.	.	.
.	.	4r	.	16e-	Get	.	.	.	.
.	.	.	.	8e-	on	.	.	.	.
.	.	.	.	16e-	up	.	.	.	.
.	.	4r	.	2r	.	.	.	.	.
.	.	16r	.	.	.	.	.	.	.
.	.	16~B-	Uh	.	.	.	.	.	.
.	.	16e-	pi-	.	.	.	.	.	.
.	.	[16d	-an-	.	.	.	.	.	.
=80	=80	=80	=80	=80	=80	=80	=80	=80	=80
1Im7	E-:13	16d]	_	4r	.	.	187.721	newline	voice
.	.	16~G-	-a	.	.	.	.	.	.
.	.	8r	.	.	.	.	.	.	.
.	.	4r	.	16e-	Get	.	.	.	.
.	.	.	.	8e-	on	.	.	.	.
.	.	.	.	16e-	up	.	.	.	.
.	.	4r	.	2r	.	.	.	.	.
.	.	8r	.	.	.	.	.	.	.
.	.	[8~g-	Take	.	.	.	.	.	.
=81	=81	=81	=81	=81	=81	=81	=81	=81	=81
1Im7	E-:13	16~g-]	_	4r	.	.	189.918	.	voice
.	.	16~B-	me	.	.	.	.	.	.
.	.	8r	.	.	.	.	.	.	.
.	.	4r	.	16e-	Get	.	.	.	.
.	.	.	.	8e-	on	.	.	.	.
.	.	.	.	16e-	up	.	.	.	.
.	.	4r	.	2r	.	.	.	.	.
.	.	8r	.	.	.	.	.	.	.
.	.	16e-	pi-	.	.	.	.	.	.
.	.	[16d-	-an-	.	.	.	.	.	.
=82	=82	=82	=82	=82	=82	=82	=82	=82	=82
1Im7	E-:13	16d-]	_	4r	.	.	192.115	newline	voice
.	.	16~G-	-a	.	.	.	.	.	.
.	.	8r	.	.	.	.	.	.	.
.	.	4r	.	16e-	Get	.	.	.	.
.	.	.	.	8e-	on	.	.	.	.
.	.	.	.	16e-	up	.	.	.	.
.	.	2r	.	2r	.	.	.	.	.
=83	=83	=83	=83	=83	=83	=83	=83	=83	=83
1Im7	E-:13	1r	.	1r	.	.	194.332	newline	piano
=84	=84	=84	=84	=84	=84	=84	=84	=84	=84
1Im7	E-:13	1r	.	1r	.	.	196.619	.	piano
=85	=85	=85	=85	=85	=85	=85	=85	=85	=85
1Im7	E-:13	1r	.	1r	.	.	198.906	newline	piano
=86	=86	=86	=86	=86	=86	=86	=86	=86	=86
1Im7	E-:13	1r	.	1r	.	.	201.127	.	piano
=87	=87	=87	=87	=87	=87	=87	=87	=87	=87
1Im7	E-:13	1r	.	1r	.	.	203.348	newline	piano
=88	=88	=88	=88	=88	=88	=88	=88	=88	=88
1Im7	E-:13	1r	.	1r	.	.	205.594	.	piano
=89	=89	=89	=89	=89	=89	=89	=89	=89	=89
1Im7	E-:13	1r	.	1r	.	.	207.841	newline	piano
=90	=90	=90	=90	=90	=90	=90	=90	=90	=90
1Im7	E-:13	2r	.	1r	.	.	210.04	.	piano
.	.	4.r	.	.	.	.	.	.	.
.	.	16g-	Get	.	.	.	.	.	.
.	.	[16f	up	.	.	.	.	.	.
=91	=91	=91	=91	=91	=91	=91	=91	=91	=91
1Im7	E-:13	16f]	_	4r	.	.	212.24	newline	voice
.	.	16~e-	ah	.	.	.	.	.	.
.	.	8r	.	.	.	.	.	.	.
.	.	4r	.	16e-	Get	.	.	.	.
.	.	.	.	8e-	on	.	.	.	.
.	.	.	.	16e-	up	.	.	.	.
.	.	4.r	.	2r	.	.	.	.	.
.	.	16b-	Get	.	.	.	.	.	.
.	.	[16b-	up	.	.	.	.	.	.
=92	=92	=92	=92	=92	=92	=92	=92	=92	=92
1Im7	E-:13	16b-]	_	4r	.	.	214.49	.	voice
.	.	16~g-	ah	.	.	.	.	.	.
.	.	8r	.	.	.	.	.	.	.
.	.	4r	.	16e-	Get	.	.	.	.
.	.	.	.	8e-	on	.	.	.	.
.	.	.	.	16e-	up	.	.	.	.
.	.	4r	.	2r	.	.	.	.	.
.	.	16e-	Stay	.	.	.	.	.	.
.	.	8e-	on	.	.	.	.	.	.
.	.	16e-	the	.	.	.	.	.	.
=93	=93	=93	=93	=93	=93	=93	=93	=93	=93
1Im7	E-:13	8e-	scene	4r	.	A	216.741	newline	voice
.	.	8r	.	.	.	.	.	.	.
.	.	4r	.	16e-	Get	.	.	.	.
.	.	.	.	8e-	on	.	.	.	.
.	.	.	.	16e-	up	.	.	.	.
.	.	16r	.	2r	.	.	.	.	.
.	.	16~d-	Uh	.	.	.	.	.	.
.	.	16~e-	like	.	.	.	.	.	.
.	.	16~e-	a	.	.	.	.	.	.
.	.	8f	sex	.	.	.	.	.	.
.	.	16e-	ma-	.	.	.	.	.	.
.	.	[16e-	-chine	.	.	A	.	.	.
=94	=94	=94	=94	=94	=94	=94	=94	=94	=94
1Im7	E-:13	16e-]	_	4r	.	.	218.942	.	voice
.	.	16~d-	uh	.	.	.	.	.	.
.	.	8r	.	.	.	.	.	.	.
.	.	4r	.	16e-	Get	.	.	.	.
.	.	.	.	8e-	on	.	.	.	.
.	.	.	.	16e-	up	.	.	.	.
.	.	8.r	.	2r	.	.	.	.	.
.	.	16~d-	You	.	.	.	.	.	.
.	.	16~e-	got-	.	.	.	.	.	.
.	.	16~d-	-ta	.	.	.	.	.	.
.	.	16~e-	have	.	.	.	.	.	.
.	.	16~d-	the	.	.	.	.	.	.
=95	=95	=95	=95	=95	=95	=95	=95	=95	=95
1Im7	E-:13	8e-	fee-	4r	.	.	221.142	newline	voice
.	.	16~d-	-lin'	.	.	.	.	.	.
.	.	16r	.	.	.	.	.	.	.
.	.	4r	.	16e-	Get	.	.	.	.
.	.	.	.	8e-	on	.	.	.	.
.	.	.	.	16e-	up	.	.	.	.
.	.	4r	.	2r	.	.	.	.	.
.	.	16d-	sure	.	.	.	.	.	.
.	.	16d-	as	.	.	.	.	.	.
.	.	16d-	you're	.	.	.	.	.	.
.	.	[16g-	born	.	.	.	.	.	.
=96	=96	=96	=96	=96	=96	=96	=96	=96	=96
1Im7	E-:13	8g-]	_	4r	.	.	223.355	.	voice
.	.	8r	.	.	.	.	.	.	.
.	.	4r	.	16e-	Get	.	.	.	.
.	.	.	.	8e-	on	.	.	.	.
.	.	.	.	16e-	up	.	.	.	.
.	.	4.r	.	2r	.	.	.	.	.
.	.	16b-	Get	.	.	.	.	.	.
.	.	16b-	it	.	.	.	.	.	.
=97	=97	=97	=97	=97	=97	=97	=97	=97	=97
1Im7	E-:13	16r	.	1r	.	.	225.568	newline	voice
.	.	16~d	t	.	.	.	.	.	.
.	.	16r	.	.	.	.	.	.	.
.	.	16d	to-	.	.	.	.	.	.
.	.	16e-	-ge-	.	.	.	.	.	.
.	.	16d	-ther	.	.	.	.	.	.
.	.	8r	.	.	.	.	.	.	.
.	.	4r	.	.	.	.	.	.	.
.	.	8r	.	.	.	.	.	.	.
.	.	16e-	Right	.	.	.	.	.	.
.	.	[16e-	on	.	.	.	.	.	.
=98	=98	=98	=98	=98	=98	=98	=98	=98	=98
1Im7	E-:13	16e-]	_	1r	.	.	227.791	.	voice
.	.	8e-	right	.	.	.	.	.	.
.	.	[16d-	on	.	.	.	.	.	.
.	.	16d-]	_	.	.	.	.	.	.
.	.	16r	.	.	.	.	.	.	.
.	.	8r	.	.	.	.	.	.	.
.	.	4.r	.	.	.	.	.	.	.
.	.	16g-	Right	.	.	.	.	.	.
.	.	[16g-	on	.	.	.	.	.	.
=99	=99	=99	=99	=99	=99	=99	=99	=99	=99
1Im7	E-:13	8g-]	_	4.r	.	.	230.014	newline	voice
.	.	16g-	right	.	.	.	.	.	.
.	.	[16e-	on	.	.	.	.	.	.
.	.	8e-]	_	.	.	.	.	.	.
.	.	8r	.	16e-	Right	.	.	.	.
.	.	.	.	[16e-	on	.	.	.	.
.	.	4.r	.	16e-]	_	.	.	.	.
.	.	.	.	16e-	n'	.	.	.	.
.	.	.	.	16e-	Right	.	.	.	.
.	.	.	.	[16d-	on	.	.	.	.
.	.	.	.	16d-]	_	.	.	.	.
.	.	.	.	16r	.	.	.	.	.
.	.	16g-	Right	8r	.	.	.	.	.
.	.	[16a-	on	.	.	.	.	.	.
=100	=100	=100	=100	=100	=100	=100	=100	=100	=100
1Im7	E-:13	16a-]	_	4.r	.	.	232.276	.	voice
.	.	16e-	n'	.	.	.	.	.	.
.	.	16g-	right	.	.	.	.	.	.
.	.	[16g-	on	.	.	.	.	.	.
.	.	16g-]	_	.	.	.	.	.	.
.	.	16r	.	.	.	.	.	.	.
.	.	8r	.	16e-	Right	.	.	.	.
.	.	.	.	[16e-	on	.	.	.	.
.	.	4r	.	16e-]	_	.	.	.	.
.	.	.	.	16e-	n'	.	.	.	.
.	.	.	.	16e-	Right	.	.	.	.
.	.	.	.	[16e-	on	.	.	.	.
.	.	8r	.	8e-]	_	.	.	.	.
.	.	16a-	Right	8r	.	.	.	.	.
.	.	[16a	on	.	.	.	.	.	.
=101	=101	=101	=101	=101	=101	=101	=101	=101	=101
1Im7	E-:13	16a]	_	4.r	.	.	234.537	newline	voice
.	.	16~e-	n'	.	.	.	.	.	.
.	.	16g-	right	.	.	.	.	.	.
.	.	[16g-	on	.	.	.	.	.	.
.	.	8g-]	_	.	.	.	.	.	.
.	.	8r	.	16e-	Right	.	.	.	.
.	.	.	.	[16e-	on	.	.	.	.
.	.	4.r	.	16e-]	_	.	.	.	.
.	.	.	.	16e-	n'	.	.	.	.
.	.	.	.	16e-	Right	.	.	.	.
.	.	.	.	[16d-	on	.	.	.	.
.	.	.	.	16d-]	_	.	.	.	.
.	.	.	.	16r	.	.	.	.	.
.	.	16e-	Get	8r	.	.	.	.	.
.	.	[16e-	up	.	.	.	.	.	.
=102	=102	=102	=102	=102	=102	=102	=102	=102	=102
1Im7	E-:13	16e-]	_	4r	.	.	236.76	.	voice
.	.	16~d-	ah	.	.	.	.	.	.
.	.	8r	.	.	.	.	.	.	.
.	.	4r	.	16e-	Get	.	.	.	.
.	.	.	.	8e-	on	.	.	.	.
.	.	.	.	16e-	up	.	.	.	.
.	.	4.r	.	2r	.	.	.	.	.
.	.	16g	Get	.	.	.	.	.	.
.	.	[16a-	up	.	.	.	.	.	.
=103	=103	=103	=103	=103	=103	=103	=103	=103	=103
1Im7	E-:13	16a-]	_	4r	.	.	238.984	newline	voice
.	.	16~e-	ah	.	.	.	.	.	.
.	.	8r	.	.	.	.	.	.	.
.	.	4r	.	16e-	Get	.	.	.	.
.	.	.	.	8e-	on	.	.	.	.
.	.	.	.	16e-	up	.	.	.	.
.	.	8r	.	2r	.	.	.	.	.
.	.	16~d-	and	.	.	.	.	.	.
.	.	[16~e-	then	.	.	.	.	.	.
.	.	8~e-]	_	.	.	.	.	.	.
.	.	8r	.	.	.	.	.	.	.
=104	=104	=104	=104	=104	=104	=104	=104	=104	=104
1Im7	E-:13	8g-	Shake	8e-	Shake	.	241.232	.	voice
.	.	8g-	your	8e-	your	.	.	.	.
.	.	8g-	mo-	8e-	mo-	.	.	.	.
.	.	16g-	-ney	16e-	-ney	.	.	.	.
.	.	[16g-	ma-	[16e-	ma-	.	.	.	.
.	.	16g-]	_	16e-]	_	.	.	.	.
.	.	16r	.	16r	.	.	.	.	.
.	.	16g-	-ker	16e-	-ker	.	.	.	.
.	.	16r	.	16r	.	.	.	.	.
.	.	4r	.	4r	.	.	.	.	.
=105	=105	=105	=105	=105	=105	=105	=105	=105	=105
1Im7	E-:13	8g-	Shake	8e-	Shake	.	243.48	newline	voice
.	.	8g-	your	8e-	your	.	.	.	.
.	.	8g-	mo-	8e-	mo-	.	.	.	.
.	.	16g-	-ney	16e-	-ney	.	.	.	.
.	.	[16g-	ma-	[16e-	ma-	.	.	.	.
.	.	16g-]	_	16e-]	_	.	.	.	.
.	.	16r	.	16r	.	.	.	.	.
.	.	16g-	-ker	16e-	-ker	.	.	.	.
.	.	16r	.	16r	.	.	.	.	.
.	.	4r	.	4r	.	.	.	.	.
=106	=106	=106	=106	=106	=106	=106	=106	=106	=106
1Im7	E-:13	8g-	Shake	8e-	Shake	.	245.691	.	voice
.	.	8g-	your	8e-	your	.	.	.	.
.	.	8g-	mo-	8e-	mo-	.	.	.	.
.	.	16g-	-ney	16e-	-ney	.	.	.	.
.	.	[16g-	ma-	[16e-	ma-	.	.	.	.
.	.	16g-]	_	16e-]	_	.	.	.	.
.	.	16r	.	16r	.	.	.	.	.
.	.	16g-	-ker	16e-	-ker	.	.	.	.
.	.	16r	.	16r	.	.	.	.	.
.	.	4r	.	4r	.	.	.	.	.
=107	=107	=107	=107	=107	=107	=107	=107	=107	=107
1Im7	E-:13	8g-	Shake	8e-	Shake	.	247.902	newline	voice
.	.	8g-	your	8e-	your	.	.	.	.
.	.	8g-	mo-	8e-	mo-	.	.	.	.
.	.	16g-	-ney	16e-	-ney	.	.	.	.
.	.	[16g-	ma-	[16e-	ma-	.	.	.	.
.	.	16g-]	_	16e-]	_	.	.	.	.
.	.	16r	.	16r	.	.	.	.	.
.	.	16g-	-ker	16e-	-ker	.	.	.	.
.	.	16r	.	16r	.	.	.	.	.
.	.	4r	.	4r	.	.	.	.	.
=108	=108	=108	=108	=108	=108	=108	=108	=108	=108
1Im7	E-:13	8g-	Shake	8e-	Shake	.	250.124	.	voice
.	.	8g-	your	8e-	your	.	.	.	.
.	.	8g-	mo-	8e-	mo-	.	.	.	.
.	.	16g-	-ney	16e-	-ney	.	.	.	.
.	.	[16g-	ma-	[16e-	ma-	.	.	.	.
.	.	16g-]	_	16e-]	_	.	.	.	.
.	.	16r	.	16r	.	.	.	.	.
.	.	16g-	-ker	16e-	-ker	.	.	.	.
.	.	16r	.	16r	.	.	.	.	.
.	.	4r	.	4r	.	.	.	.	.
=109	=109	=109	=109	=109	=109	=109	=109	=109	=109
1Im7	E-:13	8g-	Shake	8e-	Shake	.	252.346	newline	voice
.	.	8g-	your	8e-	your	.	.	.	.
.	.	8g-	mo-	8e-	mo-	.	.	.	.
.	.	16g-	-ney	16e-	-ney	.	.	.	.
.	.	[16g-	ma-	[16e-	ma-	.	.	.	.
.	.	16g-]	_	16e-]	_	.	.	.	.
.	.	16r	.	16r	.	.	.	.	.
.	.	16g-	-ker	16e-	-ker	.	.	.	.
.	.	16r	.	16r	.	.	.	.	.
.	.	4r	.	4r	.	.	.	.	.
=110	=110	=110	=110	=110	=110	=110	=110	=110	=110
1Im7	E-:13	8g-	Shake	8e-	Shake	.	254.573	.	voice
.	.	8g-	your	8e-	your	.	.	.	.
.	.	8g-	mo-	8e-	mo-	.	.	.	.
.	.	16g-	-ney	16e-	-ney	.	.	.	.
.	.	[16g-	ma-	[16e-	ma-	.	.	.	.
.	.	16g-]	_	16e-]	_	.	.	.	.
.	.	16r	.	16r	.	.	.	.	.
.	.	16g-	-ker	16e-	-ker	.	.	.	.
.	.	16r	.	16r	.	.	.	.	.
.	.	8r	.	4r	.	.	.	.	.
.	.	16d	Get	.	.	.	.	.	.
.	.	[16e-	up	.	.	.	.	.	.
=111	=111	=111	=111	=111	=111	=111	=111	=111	=111
1Im7	E-:13	16e-]	_	4r	.	.	256.8	newline	voice
.	.	16~d-	ah	.	.	.	.	.	.
.	.	8r	.	.	.	.	.	.	.
.	.	4r	.	16e-	Get	.	.	.	.
.	.	.	.	8e-	on	.	.	.	.
.	.	.	.	16e-	up	.	.	.	.
.	.	4.r	.	2r	.	.	.	.	.
.	.	16a-	Get	.	.	.	.	.	.
.	.	[16b-	up	.	.	.	.	.	.
=112	=112	=112	=112	=112	=112	=112	=112	=112	=112
1Im7	E-:13	16b-]	_	4r	.	.	259.027	.	voice
.	.	16r	.	.	.	.	.	.	.
.	.	16~e-	ah	.	.	.	.	.	.
.	.	16r	.	.	.	.	.	.	.
.	.	4r	.	16e-	Get	.	.	.	.
.	.	.	.	8e-	on	.	.	.	.
.	.	.	.	16e-	up	.	.	.	.
.	.	4.r	.	2r	.	.	.	.	.
.	.	16g-	Get	.	.	.	.	.	.
.	.	[16a-	up	.	.	.	.	.	.
=113	=113	=113	=113	=113	=113	=113	=113	=113	=113
1Im7	E-:13	16a-]	_	4r	.	.	261.255	newline	voice
.	.	16~e-	ah	.	.	.	.	.	.
.	.	8r	.	.	.	.	.	.	.
.	.	4r	.	16e-	Get	.	.	.	.
.	.	.	.	8e-	on	.	.	.	.
.	.	.	.	16e-	up	.	.	.	.
.	.	4.r	.	2r	.	.	.	.	.
.	.	16dd	Get	.	.	.	.	.	.
.	.	[16ee-	up	.	.	.	.	.	.
=114	=114	=114	=114	=114	=114	=114	=114	=114	=114
1Im7	E-:13	8ee-]	_	4r	.	.	263.478	.	voice
.	.	8r	.	.	.	.	.	.	.
.	.	4r	.	16e-	Get	.	.	.	.
.	.	.	.	8e-	on	.	.	.	.
.	.	.	.	16e-	up	.	.	.	.
.	.	4.r	.	2r	.	.	.	.	.
.	.	16dd	Get	.	.	.	.	.	.
.	.	[16ee-	up	.	.	.	.	.	.
=115	=115	=115	=115	=115	=115	=115	=115	=115	=115
1Im7	E-:13	8ee-]	_	4r	.	.	265.701	newline	voice
.	.	16~e-	ah	.	.	.	.	.	.
.	.	16r	.	.	.	.	.	.	.
.	.	4r	.	16e-	Get	.	.	.	.
.	.	.	.	8e-	on	.	.	.	.
.	.	.	.	16e-	up	.	.	.	.
.	.	2r	.	2r	.	.	.	.	.
=116	=116	=116	=116	=116	=116	=116	=116	=116	=116
1Im7	E-:13	1r	.	1r	.	.	267.965	newline	piano
=117	=117	=117	=117	=117	=117	=117	=117	=117	=117
1Im7	E-:13	1r	.	1r	.	.	270.225	.	piano
=118	=118	=118	=118	=118	=118	=118	=118	=118	=118
1Im7	E-:13	1r	.	1r	.	.	272.486	newline	piano
=119	=119	=119	=119	=119	=119	=119	=119	=119	=119
1Im7	E-:13	1r	.	1r	.	.	274.717	.	piano
=120	=120	=120	=120	=120	=120	=120	=120	=120	=120
1Im7	E-:13	1r	.	1r	.	.	276.948	newline	piano
=121	=121	=121	=121	=121	=121	=121	=121	=121	=121
1Im7	E-:13	1r	.	1r	.	.	279.197	.	piano
=122	=122	=122	=122	=122	=122	=122	=122	=122	=122
1Im7	E-:13	1r	.	1r	.	.	281.447	newline	piano
=123	=123	=123	=123	=123	=123	=123	=123	=123	=123
1Im7	E-:13	1r	.	1r	.	.	283.695	.	piano
=124	=124	=124	=124	=124	=124	=124	=124	=124	=124
1Im7	E-:13	1r	.	1r	.	.	285.943	newline	piano
=125	=125	=125	=125	=125	=125	=125	=125	=125	=125
1Im7	E-:13	1r	.	1r	.	.	288.176	.	piano
=126	=126	=126	=126	=126	=126	=126	=126	=126	=126
1Im7	E-:13	8r	.	1r	.	.	290.41	newline	voice
.	.	8~B-	Huh	.	.	.	.	.	.
.	.	4r	.	.	.	.	.	.	.
.	.	4.r	.	.	.	.	.	.	.
.	.	16e-	Get	.	.	.	.	.	.
.	.	[16e-	up	.	.	.	.	.	.
=127	=127	=127	=127	=127	=127	=127	=127	=127	=127
1Im7	E-:13	16e-]	_	4r	.	.	292.645	.	voice
.	.	16~e-	ah	.	.	.	.	.	.
.	.	8r	.	.	.	.	.	.	.
.	.	4r	.	16e-	Get	.	.	.	.
.	.	.	.	8e-	on	.	.	.	.
.	.	.	.	16e-	up	.	.	.	.
.	.	4.r	.	2r	.	.	.	.	.
.	.	16f	Get	.	.	.	.	.	.
.	.	[16g-	up	.	.	.	.	.	.
=128	=128	=128	=128	=128	=128	=128	=128	=128	=128
1Im7	E-:13	16g-]	_	4r	.	.	294.88	newline	voice
.	.	16~e-	ah	.	.	.	.	.	.
.	.	8r	.	.	.	.	.	.	.
.	.	4r	.	16e-	Get	.	.	.	.
.	.	.	.	8e-	on	.	.	.	.
.	.	.	.	16e-	up	.	.	.	.
.	.	4r	.	2r	.	.	.	.	.
.	.	8r	.	.	.	.	.	.	.
.	.	16ee-	Get	.	.	.	.	.	.
.	.	[16ee-	up	.	.	.	.	.	.
=129	=129	=129	=129	=129	=129	=129	=129	=129	=129
1Im7	E-:13	16ee-]	_	4r	.	.	297.115	.	voice
.	.	16~e-	ah	.	.	.	.	.	.
.	.	8r	.	.	.	.	.	.	.
.	.	4r	.	16e-	Get	.	.	.	.
.	.	.	.	8e-	on	.	.	.	.
.	.	.	.	16e-	up	.	.	.	.
.	.	2r	.	2r	.	.	.	.	.
=130	=130	=130	=130	=130	=130	=130	=130	=130	=130
1Im7	E-:13	1r	.	1r	.	.	299.35	newline	voice
=131	=131	=131	=131	=131	=131	=131	=131	=131	=131
1Im7	E-:13	1r	.	1r	.	.	301.555	.	voice
=132	=132	=132	=132	=132	=132	=132	=132	=132	=132
1Im7	E-:13	1r	.	1r	.	.	303.76	newline	voice
=133	=133	=133	=133	=133	=133	=133	=133	=133	=133
1Im7	E-:13	1r	.	1r	.	.	306.033	.	voice
=134	=134	=134	=134	=134	=134	=134	=134	=134	=134
1Im7	E-:13	1r	.	1r	.	.	308.305	newline	voice
=135	=135	=135	=135	=135	=135	=135	=135	=135	=135
1Im7	E-:13	1r	.	1r	.	.	310.506	.	voice
=136	=136	=136	=136	=136	=136	=136	=136	=136	=136
*>Letter>A	*>Letter>A	*>Letter>A	*>Letter>A	*>Letter>A	*>Letter>A	*>Letter>A	*>Letter>A	*>Letter>A	*>Letter>A
*>Label>Outro	*>Label>Outro	*>Label>Outro	*>Label>Outro	*>Label>Outro	*>Label>Outro	*>Label>Outro	*>Label>Outro	*>Label>Outro	*>Label>Outro
1IVm7	A-:13	1r	.	1r	.	.	312.707	newline	brass
1r;	N	r;	.	r;	.	.	315.63	.	r
1r;	N	r;	.	r;	.	.	319.154	.	r
*-	*-	*-	*-	*-	*-	*-	*-	*-	*-
!!!BillboardChartDate: 1970/09/12
!!!BillboardPeak: 15
!!!BillboardWeeksOnChart: 9
!!!COC: James Brown
!!!EMD: I had to remove one measure before the bridge to align with melodic score. Not sure what was problem. -Nat
!!!ENC: Nathaniel Condit-Schultz
!!!EST: Awating manual error checking and editing.
!!!OTL: Get Up (I Feel Like Being Like A) Sex Machine (Part 1)
!!!RDF**harte: Chris Harte's syntax, used by MIREX
!!!RDF**harmony: **recip + pitch class of root + harmonic quality
!!!RDF**leadinstrument: original McGill primary instrumentation annotation
!!!RDF**phrase: newline = linebreak in original McGill transcription
!!!RDF**timestamp: McGill audio timestamp in seconds
!!!RDT: 2017/01/12/
!!!SampleActualRank: 32
!!!SampleID#: 0857
!!!SampleTargetRank: 34
!!!MBID: 05e065f2-acb2-4d89-8d49-611c50059b0b
